X:1
T:If Your Soul Is Lost
T:If Your Soul Is Lost
T:Haldor Lillenas
T:Haldor Lillenas, 1917
T:Public Domain Courtesy of the Cyber Hymnal™
T:Public Domain Courtesy of the Cyber Hymnal™
C:Haldor Lillenas
Z:Public Domain
Z:Courtesy of the Cyber Hymnal™
%%score ( 1 2 ) ( 3 4 )
L:1/8
Q:1/4=102
M:4/4
K:Eb
V:1 treble 
V:2 treble 
V:3 bass 
V:4 bass 
V:1
 E[EF] | [EG]2 [EF]2 E2 [EG][FA] | [GB]2 [Ac]2 [GB]2 [Ge][Ge] | [Ad]2 [Ac]2 [GB]2 [EG][EG] | %4
w: 1.~If the|world and all of its|wealth you gain, If its|stores of trea- sures you|
w: 2.~At your|feet the world may no|rich- es lay, Will it|mat- ter much on the|
w: 3.~If the|world should hon- or and|fame be- stow, If un-|count- ed mil- lions your|
w: 4.~In the|race of sin you are|run- ning fast, And the|plea- sures gained but a|
 [EF]2 [EG]2 [DF]2 E[EF] | [EG]2 [GB]2 [^F=A]2 [Fc][Fd] | [GB]2 [Ee]2 !fermata![Ee]2 E[EF] | %7
w: should ob- tain, Would they|not be use- less and|all in vain, If your|
w: judg- ment day, If you|own a pal- ace or|hut of clay, If your|
w: name should know, How much|would it help you down|here be- low, If your|
w: mo- ment last; How much|will it pro- fit when|life is past, If your|
 [EG]4 [DF]4 | B6 E[EF] | [EG]2 [GB]2 [^F=A]2 [Fc][Fc] | [GB]2 [Ee]2 !fermata![Ee]2 E[EF] | %11
w: soul is|lost? Would they|not be use- less and|all in vain, If your|
w: soul is|lost? Will it|mat- ter much on the|judg- ment day, If your|
w: soul is|lost? How much|would it help you down|here be- low, If your|
w: soul is|lost? How much|will it pro- fit when|life is past, If your|
 [EG]4 [DF]4 | E4 x2 |] %13
w: soul is|lost?|
w: soul is|lost?|
w: soul is|lost?|
w: soul is|lost?|
V:2
 E x | x4 E2 x2 | x8 | x8 | x6 E x | x8 | x6 E x | x8 | (E2 D2 E2) E x | x8 | x6 E x | x8 | %12
 (E2 C2 B,2) |] %13
V:3
 [E,G,][E,A,] | [E,B,]2 [E,A,]2 [E,G,]2 [E,B,][E,B,] | [E,E]2 [E,E]2 [E,E]2 [E,B,][E,B,] | %3
 [B,,B,]2 [B,,B,]2 [E,B,][E,B,][E,B,][E,B,] | [F,=A,]2 [F,,A,]2 (B,_A,)[E,G,][E,A,] | %5
 [E,B,]2 [E,B,]2 [E,C]2 [E,=A,][E,A,] | [E,B,]2 (_DC) !fermata![^F,_C]2 [G,B,][A,=C] | %7
 B,2 B,2 ([B,,B,]2 [F,A,]2) | ([E,G,]2 [F,A,]2 [G,B,]2) [E,G,][E,A,] | %9
 [E,B,]2 [E,B,]2 [E,C]2 [E,=A,][E,A,] | [E,B,]2 (_DC) [^F,_C]2 [G,B,][A,=C] | %11
 B,2 B,2 [B,,B,]2 [B,,A,]2 | (G,2 A,2 G,2) |] %13
V:4
 x2 | x8 | x8 | x8 | x4 B,,2 x2 | x8 | x2 G,2 x4 | B,2 B,2 x4 | x8 | x8 | x2 G,2 x4 | B,2 B,2 x4 | %12
 E,6 |] %13

